X:1
T:Prelude
T:Prelude
T:Op. 28 No. 7
T:Frédéric Chopin
C:Frédéric Chopin
%%score { ( 1 3 ) | 2 }
L:1/8
Q:1/4=90
M:3/4
K:A
V:1 treble nm="鋼琴" snm="Pno."
V:3 treble 
V:2 bass 
V:1
"^Andantino"!p! (E2 | c>d [DGB]2 [DGB]2 | [DGB]4) ([df]2 | [^B^d]>[ce] [ca]2 [ca]2 | %4
 [ca]4) ([Ec]2 | [C^A]>[D-B] [Fd]2 [Fd]2 | [Fd]4) ([DG]2 | [DG]>[CA] [Cc]2 [Cc]2 | [Cc]4) (E2- | %9
 c>d [DGB]2 [DGB]2 | [DGB]4) ([df]2 |!<(! [^B^d]>[ce]- [ceac']2 [ceac']2!<)! | %12
!mf! [^Ace^ac']4) ([Ac]2 | [^Ac]>[Bd] [Bf]2 [=Af]2 | [Gf]4) ([DG]2 | %15
[Q:1/4=86] [DB]>"^"[CA]{A}[Q:1/4=78] [ca]2[Q:1/4=68] [ca]2 |[Q:1/4=56] [ca]4) z2 |] %17
V:2
 z2 |!ped! E,,2 [E,E]2 [E,E]2 | [E,E]4!ped-up! z2 |!ped! A,,2 [A,E]2 [A,E]2 | [A,E]4!ped-up! z2 | %5
!ped! E,,2 [E,B,]2 [E,B,]2 | [E,B,]4!ped-up! z2 |!ped! A,,,2 [E,A,E]2 [E,A,E]2 | %8
 [E,A,E]4!ped-up! z2 |!ped! E,,2 [E,E]2 [E,E]2 | [E,E]4!ped-up! z2 | %11
!ped! A,,2 [A,EA]2 [A,EA]2!ped-up! |!ped! [F,CEF]4!ped-up! z2 | %13
!ped! B,,,2 [F,D]2 [F,B,D]2!ped-up! |!ped! [E,B,D]4 z2!ped-up! |!ped! A,,,2 [E,A,E]2 [A,E]2 | %16
 [A,E]4!ped-up! z2 |] %17
V:3
 x2 | x6 | x6 | x6 | x6 | x2 D4- | D4 x2 | x6 | x6 | [EG]2 x4 | x6 | x6 | x6 | x6 | x6 | x2 A4- | %16
 A4 x2 |] %17

